static/icons/firefox.svg

<svg xmlns="http://www.w3.org/2000/svg" width="24" height="24" viewBox="0 0 24 24">
  <path fill-rule="evenodd" d="M12.0622105,20.5082875 C8.61592442,20.5082875 5.87496631,18.4905137 4.61608978,15.6067044 C3.20543381,12.4014797 4.3303873,7.26776339 6.83921216,5 L6.74100193,7.50882486 C6.86599677,7.34811721 7.82131442,7.3034762 7.97309385,7.50882486 C8.49092959,6.5177944 10.1605034,5.7767536 11.4997338,5.749969 C10.9908262,6.17852271 9.81230354,7.74095812 9.91051376,8.53556812 C10.5622725,8.74091678 11.5622312,8.74984498 12.0889951,8.78555779 C12.2497028,8.87483981 12.2229182,9.41946015 11.9015029,9.86587027 C11.9015029,9.86587027 11.4818774,10.4462034 10.3479957,10.6515521 L10.4819187,12.3389823 L9.24089859,11.7407928 C8.83912948,12.7586078 9.80337533,13.6603563 10.803334,13.4907204 C11.9104311,13.3032282 12.303272,12.5800438 13.0800256,12.6246848 C13.847851,12.6693258 14.1514099,13.0978795 14.0531996,13.4996486 C14.0531996,13.4996486 13.9282048,13.9817715 13.097882,13.9014177 C12.392554,15.017443 11.4550928,15.5084941 9.93729837,15.3745711 C12.2407746,17.2852064 15.347789,15.5531352 16.1334708,13.9906997 C16.9191526,12.4371925 16.231681,10.1247881 15.4459992,9.47302937 C16.3745323,9.87479847 17.0173628,10.2854958 17.3566345,11.1872442 C17.5351986,9.18732689 16.6155937,6.9195635 14.9728045,5.58926135 C18.0619625,6.49100979 19.9458132,8.88376801 19.9993824,12.7050386 C20.0529516,16.5263092 16.6155937,20.5082875 12.0622105,20.5082875 Z"/>
</svg>

<svg xmlns="http://www.w3.org/2000/svg" width="24" height="24">
    <path fill-rule="evenodd" d="M12.062 20.508c-3.446 0-6.187-2.017-7.446-4.901C3.206 12.4 4.33 7.267 6.84 5l-.098 2.509c.125-.16 1.08-.206 1.232 0 .518-.991 2.188-1.732 3.527-1.759-.51.429-1.688 1.991-1.59 2.786.652.205 1.652.214 2.179.25.16.089.134.633-.187 1.08 0 0-.42.58-1.554.786l.134 1.687-1.241-.598c-.402 1.018.562 1.92 1.562 1.75 1.107-.188 1.5-.911 2.277-.866.768.044 1.071.473.973.875 0 0-.125.482-.955.401-.705 1.116-1.643 1.607-3.16 1.474 2.303 1.91 5.41.178 6.195-1.384.786-1.554.099-3.866-.687-4.518.929.402 1.571.812 1.91 1.714.18-2-.74-4.267-2.383-5.598 3.089.902 4.973 3.295 5.026 7.116.054 3.821-3.383 7.803-7.937 7.803z"/>
</svg>
